images/place.svg

<svg width="18" height="18" viewBox="0 0 18 18" fill="none" xmlns="http://www.w3.org/2000/svg">
<path d="M14.907 4.48004C14.8429 4.23991 14.7128 3.98404 14.6165 3.76002C13.4647 0.99202 10.9481 2.28882e-05 8.91609 2.28882e-05C6.19584 2.28882e-05 3.1998 1.82407 2.7998 5.58386V6.352C2.7998 6.38406 2.81085 6.67203 2.82655 6.81607C3.05078 8.60789 4.46466 10.5122 5.5206 12.304C6.65664 14.2238 7.83546 16.1123 9.00335 18C9.72349 16.7681 10.441 15.52 11.1448 14.32C11.3366 13.9679 11.5592 13.6159 11.7512 13.2798C11.8792 13.056 12.1237 12.8322 12.2354 12.6239C13.3714 10.5441 15.1999 8.44811 15.1999 6.38402V5.53607C15.1999 5.3123 14.9226 4.52829 14.907 4.48004ZM8.96589 8.33612C8.16628 8.33612 7.29104 7.9363 6.85903 6.8321C6.79466 6.65633 6.79985 6.30409 6.79985 6.27182V5.77582C6.79985 4.36818 7.99507 3.72805 9.03486 3.72805C10.3149 3.72805 11.305 4.75219 11.305 6.03227C11.305 7.31232 10.246 8.33612 8.96589 8.33612Z" fill="#3B322D"/>
</svg>

<svg width="18" height="18" fill="none" xmlns="http://www.w3.org/2000/svg"><path d="M14.907 4.48c-.064-.24-.194-.496-.29-.72C13.465.992 10.947 0 8.916 0 6.195 0 3.2 1.824 2.8 5.584v.768c0 .032.01.32.027.464.224 1.792 1.638 3.696 2.694 5.488 1.136 1.92 2.314 3.808 3.482 5.696.72-1.232 1.438-2.48 2.142-3.68.192-.352.414-.704.606-1.04.128-.224.373-.448.484-.656 1.136-2.08 2.965-4.176 2.965-6.24v-.848c0-.224-.277-1.008-.293-1.056zM8.966 8.336c-.8 0-1.675-.4-2.107-1.504-.064-.176-.06-.528-.06-.56v-.496c0-1.408 1.196-2.048 2.236-2.048 1.28 0 2.27 1.024 2.27 2.304 0 1.28-1.059 2.304-2.34 2.304z" fill="#3B322D"/></svg>
